X:20
T: Marinka
O: Gajcsána (Tekucs), 1929
Q: 1/4=112
L:1/4
M:4/8
K:Bb
G d | e/d/c/B/ | 
d/c/ d/A/ | B B | 
B c | d/c/B/G/ | 
c/B/ B/_A/ | G G | 

